X: 2
T: Reel du lapin
M: C|
L: 1/8
R: reel
K: G
z2 |:\
"G"G2Bd gagf | "C"edcB "Am7"ABAF |\
[1,3 "D"DEFG "Em7"ABAF | "Ddim/F"GFGB "D/F#"d2(3DEF :|\
[2,4 "D"DEFG A2 "^pizz"e2 | "D"dcBA "G"G2  :|
|: "D+"Bc |\
"G"dBGA BGBc | dB"G#dim"GBx "Am7"A2 AB |\
[1,3 "D"cAFA DFAB | cAFA "D7"d2 :|\
[2,4 "D"cAFA D2 "^pizz"e2 | "D"dcBA "G"G2 :|
% text 4/25/13


